workspaces/osm/styles/symbols/gate.svg

<svg width="6" height="5" version="1.1" xmlns="http://www.w3.org/2000/svg"><path d="m0 0h6v5h-6v-5z" fill="#fff"/><g fill="#3f3f3f"><path d="m0 1h6v1h-6v-1z"/><path d="m0 3h6v1h-6v-1z"/><path d="m4 0c-1 1.6667-2 3.3333-3 5h1c1-1.6667 2-3.3333 3-5h-1z"/></g></svg>

<?xml version="1.0" encoding="UTF-8" standalone="no"?>

<svg xmlns="http://www.w3.org/2000/svg"
   version="1.1"
   width="6"
   height="5">
	<path d="M 0,0 6,0 6,5 0,5 z" fill="#ffffff" />
	<path d="M 0,1 6,1 6,2 0,2 z" fill="#3f3f3f" />
	<path d="M 0,3 6,3 6,4 0,4 z" fill="#3f3f3f" />
	<path d="M 4,0 1,5 2,5 5,0 z" fill="#3f3f3f" />
</svg>
